X:482
T:Polska # 482
T: efter Melker Andersson
M:3/4
L:1/16
Q: 110
K: A
|: ABcd e2a2 g2a2| fgfe (fg)af f2e2| (cA)ce (ag)ae dcBA|cBAG A2E2 C2A,2|
ABcd e2a2 g2a2| fgfe (fg)af f2e2| (cA)ce (ag)ae dcBA|cBAG A4A4 :|
|:AEAc AEAc d2B2| BGBd BGBd d2c2| AEAc AEAc d2B2| BGBd BGBd d2c2|
ABcd e2a2 g2a2| fgfe (fg)af f2e2| cAce (ag)fe dcBA| cBAG A4 A4 :|

